X: 10382
T: GUARACHA WALTZ
C:
%R: waltz
B: Elias Howe "The Musician's Companion" Part 1 1842 p.38 #2
S: http://imslp.org/wiki/The_Musician's_Companion_(Howe,_Elias)
Z: 2015 John Chambers <jc:trillian.mit.edu>
M: 3/8
L: 1/16
K: C
% - - - - - - - - - - - - - - - - - - - - - - - - -
(ef)(ef) |\
(a2g2)e2 | (g2f2)d2 | (f2e2)c2 | c2(ef)(ef) |\
(a2g2)e2 | (g2f2)d2 | c2(ce)(ce) | c2 :|\
(Bc)(Bc) | (e2d2)B2 | (d2c2)A2 | (c2B2)G2 | G2(Bc)(Bc) |\
(e2d2)B2 | (d2c2)A2 | G2(GB)(GB) | "^D.C."G2 |]
% - - - - - - - - - - - - - - - - - - - - - - - - -


